X: 1
T: Fraser's
M: 6/8
L: 1/8
R: jig
K: Gmix
|: D |\ 
GAG d3 | d^cd g3 | f2 c dfd | cAF AGF | 
GAG d3 | d^cd g2 e | f2 d cAF | G3 G2 :| 
|: ^f |\ 
g3 de^f | g^fg d2 e | f2 c dfd | 
[1 cAF F2 ^f | g3 de^f | g^fg d2 e | f2 d cAF | G3 G2 :| 
[2 cAF AGF | G^FG d^cd | g^fg a2 g | f2 d cAF | G3 G2 |]
